src/pos-icons/file-account-outline.svg

<svg height="24" viewBox="0 0 24 24" width="24" xmlns="http://www.w3.org/2000/svg"><path d="m14 2h-8c-1.11 0-2 .9-2 2v16c0 1.11.89 2 2 2h12c1.11 0 2-.89 2-2v-12zm4 18h-12v-16h7v5h5zm-5-7c0 1.1-.9 2-2 2s-2-.9-2-2 .9-2 2-2 2 .9 2 2m2 5v1h-8v-1c0-1.33 2.67-2 4-2s4 .67 4 2z"/></svg>

<?xml version="1.0" encoding="UTF-8"?><!DOCTYPE svg PUBLIC "-//W3C//DTD SVG 1.1//EN" "http://www.w3.org/Graphics/SVG/1.1/DTD/svg11.dtd"><svg xmlns="http://www.w3.org/2000/svg" xmlns:xlink="http://www.w3.org/1999/xlink" version="1.1" id="mdi-file-account-outline" width="24" height="24" viewBox="0 0 24 24"><path d="M14 2H6C4.89 2 4 2.9 4 4V20C4 21.11 4.89 22 6 22H18C19.11 22 20 21.11 20 20V8L14 2M18 20H6V4H13V9H18V20M13 13C13 14.1 12.1 15 11 15S9 14.1 9 13 9.9 11 11 11 13 11.9 13 13M15 18V19H7V18C7 16.67 9.67 16 11 16S15 16.67 15 18Z" /></svg>
